X:151
M:3/4
L:1/8
Q:1/4=130
K:E Minor
g>a|b2 b2 a>g|f2 dz g>f|e2d2e2|G2Ez d>e|g2 ez B>A|e2 d2 B>A|G3 z||
e3 z||

